images/bn.svg

<?xml version="1.0" encoding="UTF-8" standalone="no"?><!DOCTYPE svg PUBLIC "-//W3C//DTD SVG 1.1//EN" "http://www.w3.org/Graphics/SVG/1.1/DTD/svg11.dtd"><svg width="100%" height="100%" viewBox="0 0 57 57" version="1.1" xmlns="http://www.w3.org/2000/svg" xmlns:xlink="http://www.w3.org/1999/xlink" xml:space="preserve" xmlns:serif="http://www.serif.com/" style="fill-rule:evenodd;clip-rule:evenodd;"><circle id="cir_1" cx="28.5" cy="28.5" r="24.5" style="fill:#fafafa;"/><circle id="cir_2" cx="28.5" cy="28.5" r="22.05" style="fill:#fafafa;stroke:#000;stroke-width:2px;"/><g><path d="M33.518,13.805c-1.113,0.296 -5.64,1.038 -8.133,1.32c-2.181,0.253 -2.226,0.253 -3.161,-0.059c-1.142,-0.371 -1.38,-0.386 -1.81,-0.074c-0.43,0.297 -0.416,0.638 0.059,1.558c0.401,0.742 0.401,0.772 0.371,3.814c-0.029,3.992 -0.237,5.713 -0.86,7.405c-0.193,0.549 -0.208,0.742 -0.045,1.321c0.104,0.371 0.416,0.92 0.683,1.202c0.564,0.593 0.638,0.593 2.062,0c2.078,-0.876 8.682,-1.736 13.371,-1.736c2.271,0 2.211,-0.089 2.078,2.864c-0.178,3.992 -0.609,5.669 -1.796,6.885c-0.875,0.906 -0.831,0.906 -2.508,0.238c-1.098,-0.416 -1.261,-0.43 -1.409,-0.015c-0.09,0.252 0.103,0.668 1.009,2.048c0.623,0.95 1.335,1.974 1.602,2.27l0.475,0.535l0.713,-0.208c0.934,-0.282 2.24,-1.321 2.893,-2.315c1.054,-1.603 1.544,-3.532 1.959,-7.776c0.223,-2.286 0.416,-3.028 0.965,-3.933c0.49,-0.831 0.415,-1.113 -0.46,-1.692c-0.431,-0.282 -1.291,-0.712 -1.9,-0.949c-1.009,-0.401 -1.202,-0.431 -2.003,-0.312c-0.49,0.074 -2.093,0.223 -3.562,0.356c-1.469,0.119 -3.101,0.267 -3.621,0.312l-0.949,0.104l0.089,-0.579c0.059,-0.312 0.103,-0.757 0.103,-0.965c0,-0.46 -0.014,-0.46 3.384,-0.801c2.374,-0.223 3.072,-0.49 3.072,-1.128c0,-0.282 -0.149,-0.43 -0.683,-0.697c-1.142,-0.564 -2.73,-0.594 -5.209,-0.089c-0.415,0.089 -0.415,0.074 -0.415,-0.728c0,-0.979 -0.193,-0.89 2.864,-1.216c2.345,-0.238 3.146,-0.52 3.146,-1.099c0,-0.489 -0.727,-0.905 -1.944,-1.142c-0.742,-0.134 -1.187,-0.134 -2.167,0.029c-1.869,0.312 -1.81,0.327 -1.662,-0.43c0.06,-0.341 0.119,-0.831 0.119,-1.083l0,-0.46l1.41,-0.178c1.988,-0.238 4.333,-0.728 4.734,-0.995c0.712,-0.46 0.297,-1.068 -1.054,-1.543c-0.95,-0.341 -0.831,-0.341 -1.81,-0.059Zm-6.663,3.695c0.103,0.282 0.207,0.801 0.207,1.157l0,0.653l-1.662,0.178c-0.92,0.104 -1.781,0.208 -1.929,0.223c-0.208,0.044 -0.237,-0.059 -0.163,-0.787c0.163,-1.721 0.148,-1.706 1.321,-1.81c2.092,-0.163 1.988,-0.193 2.226,0.386Zm0.207,4.808l0,0.861l-1.662,0.178c-0.92,0.089 -1.825,0.207 -2.003,0.252c-0.327,0.059 -0.342,0.03 -0.342,-0.994l0,-1.069l0.713,0.089c0.564,0.06 1.558,0.015 3.116,-0.178c0.119,-0.015 0.178,0.252 0.178,0.861Zm0,4.007l0,1.009l-1.662,0.252c-0.92,0.134 -1.899,0.297 -2.181,0.341l-0.505,0.089l0.089,-0.934c0.06,-0.52 0.104,-1.084 0.104,-1.277c0,-0.326 0.045,-0.341 0.638,-0.282c0.52,0.075 1.276,0.015 3.339,-0.207c0.119,-0.015 0.178,0.282 0.178,1.009Z" style="fill-rule:nonzero;"/><path d="M16.852,30.974c-0.089,0.104 -0.267,0.52 -0.4,0.921c-0.149,0.415 -0.594,1.469 -0.995,2.359c-0.638,1.365 -0.756,1.736 -0.756,2.523c-0.015,1.128 0.267,1.721 0.949,2.063c1.069,0.519 1.781,-0.208 2.419,-2.479c0.49,-1.662 0.505,-3.012 0.074,-4.184c-0.296,-0.802 -0.727,-1.395 -1.009,-1.395c-0.074,0 -0.193,0.089 -0.282,0.192Z" style="fill-rule:nonzero;"/><path d="M20.577,32.132c-0.104,0.104 -0.193,0.297 -0.193,0.416c0,0.371 1.38,2.715 1.959,3.324c0.505,0.534 0.609,0.578 1.098,0.504c0.698,-0.118 1.069,-0.46 1.188,-1.083c0.237,-1.321 -0.416,-2.3 -1.945,-2.864c-1.142,-0.445 -1.869,-0.534 -2.107,-0.297Z" style="fill-rule:nonzero;"/><path d="M25.801,31.613c-0.282,0.296 -0.238,0.415 0.549,1.736c0.905,1.499 1.825,2.478 2.345,2.478c0.994,0 1.484,-0.549 1.484,-1.677c0,-1.202 -0.831,-1.944 -2.805,-2.537c-1.009,-0.297 -1.261,-0.297 -1.573,0Z" style="fill-rule:nonzero;"/><path d="M30.995,30.871c-0.341,0.341 -0.282,0.593 0.401,1.513c1.632,2.226 2.344,2.85 3.294,2.85c0.846,0 1.276,-0.52 1.276,-1.514c0,-1.41 -0.608,-2.004 -2.745,-2.612c-1.573,-0.46 -1.959,-0.505 -2.226,-0.237Z" style="fill-rule:nonzero;"/></g></svg>

<?xml version="1.0" encoding="UTF-8" standalone="no"?>
<!DOCTYPE svg PUBLIC "-//W3C//DTD SVG 1.1//EN" "http://www.w3.org/Graphics/SVG/1.1/DTD/svg11.dtd">
<svg width="100%" height="100%" viewBox="0 0 57 57" version="1.1" xmlns="http://www.w3.org/2000/svg" xmlns:xlink="http://www.w3.org/1999/xlink" xml:space="preserve" xmlns:serif="http://www.serif.com/" style="fill-rule:evenodd;clip-rule:evenodd;">
    <g id="cir_1" transform="matrix(1.0198,0,0,1.03035,-0.0791987,-0.121408)">
        <circle cx="28.5" cy="28.5" r="24.5" style="fill:rgb(119,119,119);"/>
    </g>
    <circle id="cir_11" serif:id="cir_1" cx="28.5" cy="28.5" r="24.5" style="fill:rgb(250,250,250);"/>
    <circle id="cir_2" cx="28.5" cy="28.5" r="22.05" style="fill:rgb(250,250,250);stroke:black;stroke-width:2px;"/>
    <g>
        <path d="M33.518,13.805C32.405,14.101 27.878,14.843 25.385,15.125C23.204,15.378 23.159,15.378 22.224,15.066C21.082,14.695 20.844,14.68 20.414,14.992C19.984,15.289 19.998,15.63 20.473,16.55C20.874,17.292 20.874,17.322 20.844,20.364C20.815,24.356 20.607,26.077 19.984,27.769C19.791,28.318 19.776,28.511 19.939,29.09C20.043,29.461 20.355,30.01 20.622,30.292C21.186,30.885 21.26,30.885 22.684,30.292C24.762,29.416 31.366,28.556 36.055,28.556C38.326,28.556 38.266,28.467 38.133,31.42C37.955,35.412 37.524,37.089 36.337,38.305C35.462,39.211 35.506,39.211 33.829,38.543C32.731,38.127 32.568,38.113 32.42,38.528C32.33,38.78 32.523,39.196 33.429,40.576C34.052,41.526 34.764,42.55 35.031,42.846L35.506,43.381L36.219,43.173C37.153,42.891 38.459,41.852 39.112,40.858C40.166,39.255 40.656,37.326 41.071,33.082C41.294,30.796 41.487,30.054 42.036,29.149C42.526,28.318 42.451,28.036 41.576,27.457C41.145,27.175 40.285,26.745 39.676,26.508C38.667,26.107 38.474,26.077 37.673,26.196C37.183,26.27 35.58,26.419 34.111,26.552C32.642,26.671 31.01,26.819 30.49,26.864L29.541,26.968L29.63,26.389C29.689,26.077 29.733,25.632 29.733,25.424C29.733,24.964 29.719,24.964 33.117,24.623C35.491,24.4 36.189,24.133 36.189,23.495C36.189,23.213 36.04,23.065 35.506,22.798C34.364,22.234 32.776,22.204 30.297,22.709C29.882,22.798 29.882,22.783 29.882,21.981C29.882,21.002 29.689,21.091 32.746,20.765C35.091,20.527 35.892,20.245 35.892,19.666C35.892,19.177 35.165,18.761 33.948,18.524C33.206,18.39 32.761,18.39 31.781,18.553C29.912,18.865 29.971,18.88 30.119,18.123C30.179,17.782 30.238,17.292 30.238,17.04L30.238,16.58L31.648,16.402C33.636,16.164 35.981,15.674 36.382,15.407C37.094,14.947 36.679,14.339 35.328,13.864C34.378,13.523 34.497,13.523 33.518,13.805ZM26.855,17.5C26.958,17.782 27.062,18.301 27.062,18.657L27.062,19.31L25.4,19.488C24.48,19.592 23.619,19.696 23.471,19.711C23.263,19.755 23.234,19.652 23.308,18.924C23.471,17.203 23.456,17.218 24.629,17.114C26.721,16.951 26.617,16.921 26.855,17.5ZM27.062,22.308L27.062,23.169L25.4,23.347C24.48,23.436 23.575,23.554 23.397,23.599C23.07,23.658 23.055,23.629 23.055,22.605L23.055,21.536L23.768,21.625C24.332,21.685 25.326,21.64 26.884,21.447C27.003,21.432 27.062,21.699 27.062,22.308ZM27.062,26.315L27.062,27.324L25.4,27.576C24.48,27.71 23.501,27.873 23.219,27.917L22.714,28.006L22.803,27.072C22.863,26.552 22.907,25.988 22.907,25.795C22.907,25.469 22.952,25.454 23.545,25.513C24.065,25.588 24.821,25.528 26.884,25.306C27.003,25.291 27.062,25.588 27.062,26.315Z" style="fill-rule:nonzero;"/>
        <path d="M16.852,30.974C16.763,31.078 16.585,31.494 16.452,31.895C16.303,32.31 15.858,33.364 15.457,34.254C14.819,35.619 14.701,35.99 14.701,36.777C14.686,37.905 14.968,38.498 15.65,38.84C16.719,39.359 17.431,38.632 18.069,36.361C18.559,34.699 18.574,33.349 18.143,32.177C17.847,31.375 17.416,30.782 17.134,30.782C17.06,30.782 16.941,30.871 16.852,30.974Z" style="fill-rule:nonzero;"/>
        <path d="M20.577,32.132C20.473,32.236 20.384,32.429 20.384,32.548C20.384,32.919 21.764,35.263 22.343,35.872C22.848,36.406 22.952,36.45 23.441,36.376C24.139,36.258 24.51,35.916 24.629,35.293C24.866,33.972 24.213,32.993 22.684,32.429C21.542,31.984 20.815,31.895 20.577,32.132Z" style="fill-rule:nonzero;"/>
        <path d="M25.801,31.613C25.519,31.909 25.563,32.028 26.35,33.349C27.255,34.848 28.175,35.827 28.695,35.827C29.689,35.827 30.179,35.278 30.179,34.15C30.179,32.948 29.348,32.206 27.374,31.613C26.365,31.316 26.113,31.316 25.801,31.613Z" style="fill-rule:nonzero;"/>
        <path d="M30.995,30.871C30.654,31.212 30.713,31.464 31.396,32.384C33.028,34.61 33.74,35.234 34.69,35.234C35.536,35.234 35.966,34.714 35.966,33.72C35.966,32.31 35.358,31.716 33.221,31.108C31.648,30.648 31.262,30.603 30.995,30.871Z" style="fill-rule:nonzero;"/>
    </g>
</svg>
